X:1
T:Gavotte (ton doubl)
C:Traditionnel.  Fichier ABC par Bernard Loffet
L:1/8
Q:420
M:9/8
K:G
|: [g2G,2]g [d2G,2]d [B2G,2]B | [G3E,3] [F2A,2]G [A2D,2]B | [G3G,3] [G3G,3] :|: [g2G,2]g [d2G,2]d [B2G,2]B | \
 [G3E,3] [F2A,2]G [A2A,2]B | [cD,]Bc [A3D,3] | [g2G,2]g [d2G,2]d [B2G,2]B | [G3E,3] [F2A,2]G [A2D,2]B | \
 [G3G,3] [G3G,3] :| \
K:C
Z:Created with TablEdit http://www.tabledit.com/ by Bernard Loffet



